X:1
T:We All Can Do Good
T:We All Can Do Good
T:John Robson Sweney
T:Frances Jane (Fanny) Crosby, 1881
T:Public Domain Courtesy of the Cyber Hymnal™
T:Public Domain Courtesy of the Cyber Hymnal™
C:John Robson Sweney
Z:Public Domain
Z:Courtesy of the Cyber Hymnal™
%%score ( 1 2 ) ( 3 4 )
L:1/8
Q:1/4=90
M:6/8
K:E
V:1 treble 
V:2 treble 
V:3 bass 
V:4 bass 
V:1
 (E/F/) | [EG][EG][EG] [EG][EF]E | [GB]>[GB][GB] [GB]2 [EB] | [Ec][EB][DA] [EG][FA][EG] | %4
w: 1.~Our *|lives, we are told, are but|fleet- ing at best, Like|ros- es they fade and de-|
w: 2.~A *|look or a smile, that in|kind- ness we give, May|com- fort a de- so- late|
w: 3.~How *|ma- ny a- round us are|stran- gers to God, How|ma- ny poor child- ren we|
w: 4.~We *|all can do good, and we|all can be- stow Some|gift for the sake of the|
 ([D-F]3 [DB]2) [DA] | [EG][EG][EG] [EG][EF]E | [GB]>[GB][GB] [GB]2 [Ge] | %7
w: cay; * Then|let us do good while the|pre- sent is ours, Be|
w: heart; * May|sweet- en a life that is|lone- ly and sad, And|
w: see; * If|such we could bring to the|foot of the cross, How|
w: Lord; * If|on- ly a cup of cold|wa- ter we give, Our|
 [Bd][Ac][GB] [FA][EG][DF] | E3- =E2 ||"^Refrain" [EB] | [Ec][Ec][Ec] [Ec]<[EB][Ge] | %11
w: use- ful as long as we|stay. *|||
w: hope to the wear- y im-|part. *|||
w: grate- ful and glad we should|be. *|||
w: souls will not lose their re-|ward. *|||
 [Ad][Ac][Ad] [Ge]2 [EB] | [Ec][EB][DA] [EG][B,F][CE] | B3- [DB]2 [DA] | [EG][EG][EG] [EG][EF]E | %15
w: ||||
w: ||||
w: ||||
w: ||||
 [GB]>[GB][GB] [GB]2 [Ge] | [Bd][Ac][GB] [FA][EG][DF] | E3- E2 |] %18
w: |||
w: |||
w: |||
w: |||
V:2
 E | x5 E | x6 | x6 | x6 | x5 E | x6 | x6 | E3 =E2 || x | x6 | x6 | x6 | DFE x3 | x5 E | x6 | x6 | %17
 E3- E2 |] %18
V:3
 (G,/A,/) | [E,B,][E,B,][E,B,] [E,B,][E,A,][E,G,] | [E,E]>[E,E][E,E] [E,E]2 [G,B,] | %3
w: ~ *|~ ~ ~ ~ ~ ~|~ ~ ~ ~ ~|
 A,[G,B,][F,B,] [E,B,][E,B,][E,B,] | ([B,,-B,]3 [B,,F,]2) [B,,B,] | %5
w: ~ ~ ~ ~ ~ ~|~ * ~|
 [E,B,][E,B,][E,B,] [E,B,][E,A,][E,G,] | [E,E]>[E,E][E,E] [E,E]2 [E,B,] | %7
w: ~ ~ ~ ~ ~ ~|~ ~ ~ ~ ~|
 B,B,B, [B,,B,][B,,B,][B,,A,] | [E,G,]3- [E,G,]2 || [G,B,] | A,A,A, A,<[G,B,][E,B,] | %11
w: ~ ~ ~ ~ ~ ~|~ *|Do|good un- to o- thers, do|
 [B,,B,][B,,B,][B,,B,] [E,B,]2 [G,B,] | A,[G,B,][F,B,] [E,B,][D,B,][C,^A,] | %13
w: good while we can, Our|mo- ments how quick- ly they|
 (B,A,G, [B,,F,]2) [B,,B,] | [E,B,][E,B,][E,B,] [E,B,][E,A,][E,G,] | %15
w: fly; * * * Re-|mem- ber the pro- verb, re-|
 [E,E]>[E,E][E,E] [E,E]2 [E,B,] | B,B,B, [B,,B,][B,,B,][B,,A,] | [E,G,]3- [E,G,]2 |] %18
w: mem- ber it now, We|all can do good if we|try. *|
V:4
 E, | x6 | x6 | A, x5 | x6 | x6 | x6 | B,B,B, x3 | x5 || x | A,A,A, A,/ x5/2 | x6 | ^A, x5 | %13
 B,,3- x3 | x6 | x6 | B,B,B, x3 | x5 |] %18

